X: 105
T: A Bit Of Sweed
R: hornpipe
M: 4/4
K: Dminor
P:A
"Dm"D>E F>G A>d ^c>d|"Gm"B>d ^c>d "Dm"(A3 A/)A/|"Gm"B>A G>F "Dm"E>D E>F|"E7(Edim)"G>A G>F "A"E>D F>E|
"Dm"D>E F>G A>d ^c>d|"Gm"B>d ^c>d "Dm"(A3 A/)A/|"Gm"B>A G>F "Dm"E>D E>F|1 "A"G>A F>E "Dm"D4:|2 "A"G>A F>E "Dm"D2 A2||
P:B
|:"Gm"B2 B>A B>d e>f|g>f e>f "Dm"d2 (3ddd|"A" ^c>A c>e A'>g f>e|f>g e>f "Dm"d>f e>d|
"Gm"B2 B>A B>d e>f|g>f e>f "Dm"d2 (3ddd|"A" ^c>A c>e A'>g f>e|1 "Dm"d2 f2 d2 A2:|2 "Dm" d2 f2 d4||

